docs/icons/vant.svg

<svg width="128" height="128" viewBox="0 0 128 128" fill="none" xmlns="http://www.w3.org/2000/svg">
 
<path d="M64 24.7402L30 44.3702V83.6301L43.676 91.5259L64 81.7897L48.5938 72.8949V55.1053L64 46.2105V24.7402Z" fill="#36D7B7"/>
<path d="M30.0212 44.3579L64 24.7402V46.2105L48.6382 55.0796L30 44.3727L30.0212 44.3579Z" fill="#1BBC9B"/>
<path d="M64 103.26L98 83.6301V44.3702L84.324 36.4743L64 46.2105L79.4062 55.1053V72.8949L64 81.7897V103.26Z" fill="#19B5FE"/>
<path d="M98 83.6301L64 103.26V81.7897L79.3859 72.9067L98 83.5821V83.6301Z" fill="#3498DB"/>
</svg>

<svg xmlns="http://www.w3.org/2000/svg" width="128" height="128" fill="none" xmlns:v="https://vecta.io/nano"><path d="M64 24.74L30 44.37v39.26l13.676 7.896L64 81.79l-15.406-8.895v-17.79L64 46.211V24.74z" fill="#36d7b7"/><path d="M30.021 44.358L64 24.74v21.47L48.638 55.08 30 44.373l.021-.015z" fill="#1bbc9b"/><path d="M64 103.26l34-19.63V44.37l-13.676-7.896L64 46.211l15.406 8.895v17.79L64 81.79v21.47z" fill="#19b5fe"/><path d="M98 83.63l-34 19.63V81.79l15.386-8.883L98 83.582v.048z" fill="#3498db"/></svg>
